assets/icons/arrow-right.svg

<svg width="24" height="25" viewBox="0 0 24 25" fill="none" xmlns="http://www.w3.org/2000/svg">
<path fill-rule="evenodd" clip-rule="evenodd" d="M2.09375 13.2507C2.09375 12.6984 2.54147 12.2507 3.09375 12.2507H19.3803C19.9326 12.2507 20.3803 12.6984 20.3803 13.2507C20.3803 13.803 19.9326 14.2507 19.3803 14.2507H3.09375C2.54147 14.2507 2.09375 13.803 2.09375 13.2507Z" fill="white"/>
<path fill-rule="evenodd" clip-rule="evenodd" d="M11.8866 5.757C12.2772 5.36648 12.9103 5.36648 13.3009 5.757L20.0869 12.5431C20.4774 12.9336 20.4774 13.5668 20.0869 13.9573L13.3009 20.7433C12.9103 21.1339 12.2772 21.1339 11.8866 20.7433C11.4961 20.3528 11.4961 19.7196 11.8866 19.3291L17.9656 13.2502L11.8866 7.17122C11.4961 6.78069 11.4961 6.14753 11.8866 5.757Z" fill="white"/>
</svg>

<svg xmlns="http://www.w3.org/2000/svg" width="24" height="25" fill="none" viewBox="0 0 24 25"><path fill="#fff" fill-rule="evenodd" d="M2.094 13.25a1 1 0 0 1 1-1H19.38a1 1 0 1 1 0 2H3.094a1 1 0 0 1-1-1" clip-rule="evenodd"/><path fill="#fff" fill-rule="evenodd" d="M11.887 5.757a1 1 0 0 1 1.414 0l6.786 6.786a1 1 0 0 1 0 1.414L13.3 20.743a1 1 0 1 1-1.414-1.414l6.079-6.079-6.08-6.079a1 1 0 0 1 0-1.414" clip-rule="evenodd"/></svg>
